/* XPM */
static const char *sticker_03_xpm[] = {
"24 24 12 1",
"0 c #FFFFFF",
"1 c #FFFFFE",
"2 c #FEFFFF",
"3 c #FCFDFD",
"4 c #E1E1E1",
"5 c #E6C6CF",
"6 c #EABACD",
"7 c #F1ABC5",
"8 c #D597B2",
"9 c #A9939E",
"A c #967585",
"B c #705068",
"000000033000300003332001",
"000000300333004430000301",
"00002005AAABAAAAAA544001",
"0003039A8ABA8BB868BBA923",
"00303A96BA8767ABB669A990",
"3304B86B86677667AB669AA4",
"005B86A8587676876A966AB5",
"5AA769958967768867A767B9",
"9B967A68B967777B868A66B8",
"05B5988948776899986A7689",
"398698B9AA8768AA9B79868A",
"3A779BAABBA85BBAABB8967A",
"4A68A9AB9BBA9BBAAB99967B",
"5A68A9BABB8485BBBB9A967B",
"5A58B8B99B5004B98B8AA67A",
"5A6A869BA931339BAB68A67A",
"4A7A5777959589599777A689",
"3A8A8578545555057768A6A4",
"05B9A97754443508768B77A2",
"309BBB9AA998585A9ABA6A51",
"233945045589999959B9A903",
"309500200000000005BAA903",
"04A033023333333334950940",
"089030000000000000003590"
};
