/* XPM */
static const char *sticker_01_xpm[] = {
"24 24 12 1",
"0 c #EEE7D7",
"1 c #D7DAD0",
"2 c #C4D1CE",
"3 c #BDCFCF",
"4 c #BDCBC9",
"5 c #B7C9C9",
"6 c #BCC0B8",
"7 c #A4B7BB",
"8 c #989E9D",
"9 c #7F98A3",
"A c #74858C",
"B c #5A5D5C",
"12335999998A888999999A99",
"35379AA9AA88888A87777879",
"5799AAA9AAAA8A8A99997779",
"79A99AAABBA8AA1ABAAAAAAA",
"9A9AAAAABBA6886ABABBBBBB",
"77778999AB60006BA9988888",
"AAAAAAAA9B60002755433332",
"AA99877755A0018355555544",
"775555552AB010BA25333444",
"555555545B60106B53433455",
"555555529B01110BB1533434",
"55555451BA01110AB5454544",
"33333442B6011106BA243333",
"22334437B0000000BB434555",
"43343228B0000010BB535544",
"5544442AA0100000AB545455",
"4554552AA00000008B354433",
"44443428801111118B243332",
"444444377661116668354443",
"434332222666666622244333",
"32224578888A88B813334333",
"2279ABBBBBBBBBBB75555555",
"238BBBBBBBBBBAAB85555555",
"34478AAABAA9755555555545"
};
