/* XPM */
static const char *sticker_02_xpm[] = {
"24 24 12 1",
"0 c #FEFBF3",
"1 c #FAF0D9",
"2 c #F9EAC7",
"3 c #F4E9C7",
"4 c #F2E5C5",
"5 c #E3D6B9",
"6 c #D7C5B5",
"7 c #D2B0B6",
"8 c #A9A6A6",
"9 c #9A8793",
"A c #6D6972",
"B c #44383C",
"108BBA100698434443427A10",
"6ABB70078841352124441950",
"ABA00697312424AA52442590",
"B8008841453245AB81444186",
"406961342552447962444249",
"088323333255242165243318",
"981344342246426686232442",
"61434533232668BBAA722552",
"1333354332459B9887632552",
"44342652566177810B922552",
"5524255254000A969AA51552",
"4524159A50000AA987974552",
"26449AA96000098767866522",
"2547B885B800018877AAA985",
"445B8A589A10140669BBBA88",
"626A5B99794497607BBBBA00",
"5548597778177579BBBBA900",
"266768817707557BBAAA7800",
"2459459A9578557BBB489000",
"324957BBBB8977ABBB648888",
"34269BBBBBB798ABBBBB89A6",
"33415ABBBBAAA8ABBBB88601",
"3341998ABB58A8ABBB901913",
"22258178897898A608900861"
};
